src/IMAGE/starfilled.svg

<svg width="31" height="31" viewBox="0 0 31 31" fill="none" xmlns="http://www.w3.org/2000/svg">
<path d="M16.2605 0.587315L19.3566 11.6426L30.4184 14.7369C31.1939 14.9532 31.1939 16.0528 30.4184 16.2691L19.3566 19.3634L16.2605 30.4187C16.0441 31.1938 14.9439 31.1938 14.7275 30.4187L11.6314 19.3634L0.581645 16.2631C-0.193882 16.0468 -0.193882 14.9472 0.581645 14.7309L11.6434 11.6366L14.7395 0.581306C14.9559 -0.193769 16.0561 -0.193769 16.2725 0.581306L16.2605 0.587315Z" fill="#4BCDFD"/>
</svg>

<svg xmlns="http://www.w3.org/2000/svg" fill="none" viewBox="0 0 31 31"><path fill="#4bcdfd" d="m16.26.59 3.1 11.05 11.06 3.1c.77.21.77 1.31 0 1.53l-11.06 3.1-3.1 11.05c-.22.77-1.32.77-1.53 0l-3.1-11.06-11.05-3.1c-.77-.21-.77-1.31 0-1.53l11.06-3.1L14.74.59c.22-.77 1.32-.77 1.53 0"/></svg>
